svgs/pixel_tips.svg

<svg width="192" height="192" viewBox="0 0 192 192" fill="none" xmlns="http://www.w3.org/2000/svg"><path d="M80 162h32v8a6 6 0 0 1-6 6H86a6 6 0 0 1-6-6v-8Z" fill="#000"/><path d="m120 111.578-3.004-5.193-2.996 1.733v3.46h6Zm-48 0h6v-3.46l-2.996-1.733L72 111.578ZM138 70c0 15.538-8.435 29.114-21.004 36.385l6.008 10.387C139.129 107.444 150 89.995 150 70h-12ZM96 28c23.196 0 42 18.804 42 42h12c0-29.823-24.177-54-54-54v12ZM54 70c0-23.196 18.804-42 42-42V16c-29.823 0-54 24.177-54 54h12Zm21.004 36.385C62.434 99.114 54 85.538 54 70H42c0 19.995 10.87 37.444 26.996 46.772l6.008-10.387ZM78 150v-38.422H66V150h12Zm2 2a2 2 0 0 1-2-2H66c0 7.732 6.268 14 14 14v-12Zm32 0H80v12h32v-12Zm2-2a2 2 0 0 1-2 2v12c7.732 0 14-6.268 14-14h-12Zm0-38.422V150h12v-38.422h-12Z" fill="#000"/><path d="M96 136V86m0 0H76m20 0h19.5" stroke="#000" stroke-width="12" stroke-linecap="round" stroke-linejoin="round"/></svg>

<svg width="192" height="192" viewBox="0 0 192 192" fill="none" xmlns="http://www.w3.org/2000/svg">
<path d="M80 162H112V170C112 173.314 109.314 176 106 176H86C82.6863 176 80 173.314 80 170V162Z" fill="black"/>
<path d="M120 111.578L116.996 106.385L114 108.118V111.578H120ZM72 111.578H78V108.118L75.0044 106.385L72 111.578ZM138 70C138 85.5384 129.565 99.1138 116.996 106.385L123.004 116.772C139.129 107.444 150 89.9952 150 70H138ZM96 28C119.196 28 138 46.804 138 70H150C150 40.1766 125.823 16 96 16V28ZM54 70C54 46.804 72.804 28 96 28V16C66.1766 16 42 40.1766 42 70H54ZM75.0044 106.385C62.4349 99.1138 54 85.5384 54 70H42C42 89.9952 52.8707 107.444 68.9956 116.772L75.0044 106.385ZM78 150V111.578H66V150H78ZM80 152C78.8954 152 78 151.105 78 150H66C66 157.732 72.268 164 80 164V152ZM112 152H80V164H112V152ZM114 150C114 151.105 113.105 152 112 152V164C119.732 164 126 157.732 126 150H114ZM114 111.578V150H126V111.578H114Z" fill="black"/>
<path d="M96 136L96 86M96 86L76 86M96 86L115.5 86" stroke="black" stroke-width="12" stroke-linecap="round" stroke-linejoin="round"/>
</svg>
